packages/core/src/svgs/tokens/branded/SDAO.svg

<svg width="24" height="24" viewBox="0 0 24 24" fill="none" xmlns="http://www.w3.org/2000/svg">
<g opacity="0.7">
<path d="M12 22C14.6522 22 17.1957 20.9464 19.0711 19.071C20.9464 17.1957 22 14.6522 22 12C22 9.34785 20.9464 6.80429 19.0711 4.92892C17.1957 3.05357 14.6522 2 12 2C9.34784 2 6.80429 3.05357 4.92892 4.92892C3.05357 6.80429 2 9.34785 2 12C2 14.6522 3.05357 17.1957 4.92892 19.071C6.80429 20.9464 9.34784 22 12 22ZM14.5293 9.18822C14.7588 8.1941 14.6294 6.91176 13.4 5.15293C17.8177 6.11764 20.6118 10.9235 19.4118 15.2059C19.1576 16.1892 18.7085 17.1113 18.0911 17.9176C17.4736 18.724 16.7006 19.3981 15.8176 19.9C14.3412 20.7235 12.1882 21.3705 10.5941 20.4999C10.0616 20.1952 9.6347 19.735 9.3709 19.1811C9.10696 18.627 9.01862 18.0056 9.11763 17.4C9.31174 16.4294 10.0117 15.4764 10.7588 14.5764C11.1588 14.0941 11.5823 13.6353 12 13.1646L12.647 12.453C13.4824 11.5059 14.2411 10.3823 14.5177 9.18822H14.5293Z" fill="url(#paint0_linear_364_13532)"/>
<path d="M5.55884 7.88236C9.05883 4.12941 13.3648 5.15295 13.3648 5.15295L13.2824 5.05884C12.8118 4.94118 8.4706 4.17648 5.55884 7.88236Z" fill="#203BDB"/>
<path d="M15.8238 19.8999C14.3473 20.7235 12.1943 21.3705 10.6003 20.4999C10.0676 20.1952 9.64084 19.735 9.3769 19.181C9.11309 18.6269 9.02475 18.0056 9.12376 17.4C9.31788 16.4293 10.0179 15.4764 10.765 14.5764C11.1649 14.0941 11.5885 13.6352 12.0062 13.1646L12.6532 12.4529C11.5473 13.6175 9.86498 14.1882 8.65317 15.1235C7.44729 16.0469 7.06494 17.4412 7.38258 18.9293C7.71788 20.4587 8.85905 21.8705 11.612 21.9881C13.3355 22.0646 14.6826 20.9294 15.8238 19.8999Z" fill="url(#paint1_linear_364_13532)"/>
</g>
<defs>
<linearGradient id="paint0_linear_364_13532" x1="22" y1="12.0176" x2="2" y2="12.0176" gradientUnits="userSpaceOnUse">
<stop offset="0.11" stop-color="#E25900"/>
<stop offset="0.2" stop-color="#CBC91E"/>
<stop offset="0.35" stop-color="#2DE2C1"/>
<stop offset="0.46" stop-color="#3093D3"/>
<stop offset="0.7" stop-color="#2024DE"/>
<stop offset="1" stop-color="#2624DF"/>
</linearGradient>
<linearGradient id="paint1_linear_364_13532" x1="9.38267" y1="16.7823" x2="7.27091" y2="16.8764" gradientUnits="userSpaceOnUse">
<stop stop-color="#203BDB"/>
<stop offset="1" stop-color="#2133DD" stop-opacity="0.4"/>
</linearGradient>
</defs>
</svg>

<svg xmlns="http://www.w3.org/2000/svg" width="24" height="24" fill="none" viewBox="0 0 24 24">
    <g opacity=".7">
        <path fill="url(#SDAO__a)" d="M12 22a10 10 0 1 0 0-20 10 10 0 0 0 0 20m2.53-12.812c.229-.994.1-2.276-1.13-4.035 4.418.965 7.212 5.77 6.012 10.053a7.58 7.58 0 0 1-3.594 4.694c-1.477.824-3.63 1.47-5.224.6a3.01 3.01 0 0 1-1.476-3.1c.194-.97.894-1.924 1.64-2.824.4-.482.824-.94 1.242-1.411l.647-.712c.835-.947 1.594-2.07 1.87-3.265z"/>
        <path fill="#203BDB" d="M5.559 7.882c3.5-3.753 7.806-2.729 7.806-2.729l-.083-.094c-.47-.118-4.811-.883-7.723 2.823"/>
        <path fill="url(#SDAO__b)" d="M15.824 19.9c-1.477.824-3.63 1.47-5.224.6a3.01 3.01 0 0 1-1.476-3.1c.194-.97.894-1.924 1.641-2.824.4-.482.823-.94 1.241-1.411l.647-.712c-1.106 1.165-2.788 1.735-4 2.67-1.206.924-1.588 2.318-1.27 3.806.335 1.53 1.476 2.942 4.229 3.06 1.723.076 3.07-1.06 4.212-2.09"/>
    </g>
    <defs>
        <linearGradient id="SDAO__a" x1="22" x2="2" y1="12.018" y2="12.018" gradientUnits="userSpaceOnUse">
            <stop offset=".11" stop-color="#E25900"/>
            <stop offset=".2" stop-color="#CBC91E"/>
            <stop offset=".35" stop-color="#2DE2C1"/>
            <stop offset=".46" stop-color="#3093D3"/>
            <stop offset=".7" stop-color="#2024DE"/>
            <stop offset="1" stop-color="#2624DF"/>
        </linearGradient>
        <linearGradient id="SDAO__b" x1="9.383" x2="7.271" y1="16.782" y2="16.876" gradientUnits="userSpaceOnUse">
            <stop stop-color="#203BDB"/>
            <stop offset="1" stop-color="#2133DD" stop-opacity=".4"/>
        </linearGradient>
    </defs>
</svg>
